X: 286
T:Sheards of Foula
% Nottingham Music Database
S:Peter Kennedy, via EF
M:6/8
K:G
P:A
D|"G"G2G G2B|"C"edB "D"A2B|"Em"G2G G2A|"Em"BAG "D7"E2D|
"G"G2G G2B|"C"edB "D"A2B|"Em"G2G GAB|"Bm"d3 d2:|
P:B
d|"D7"def "G"g2d|"C"edB "D"A2B|"Em"G2G G2A|"Em"BAG E3|
"D7"def "G"g2d|"C"edB "D"A2B|"Em"G2G GAB|"Bm"d3 d2:|<end>
<start>
